imgs/icons/email-icon.svg

<svg width="38" height="38" viewBox="0 0 38 38" fill="none" xmlns="http://www.w3.org/2000/svg">
<g clip-path="url(#clip0_83_211)">
<path d="M33.9286 0H4.07143C1.82281 0 0 1.82281 0 4.07143V33.9286C0 36.1772 1.82281 38 4.07143 38H33.9286C36.1772 38 38 36.1772 38 33.9286V4.07143C38 1.82281 36.1772 0 33.9286 0ZM15.1081 19.5177C7.41585 13.9351 7.49423 13.921 5.42857 12.3133V10.1786C5.42857 9.05426 6.33998 8.14286 7.46429 8.14286H30.5357C31.66 8.14286 32.5714 9.05426 32.5714 10.1786V12.3133C30.5042 13.9223 30.5837 13.9354 22.8919 19.5178C22.0012 20.1671 20.2291 21.7334 19 21.7142C17.7698 21.7327 16.0001 20.1682 15.1081 19.5177ZM32.5714 15.7577V27.8214C32.5714 28.9457 31.66 29.8571 30.5357 29.8571H7.46429C6.33998 29.8571 5.42857 28.9457 5.42857 27.8214V15.7577C6.61251 16.6733 8.25558 17.8983 13.5123 21.7134C14.7135 22.5905 16.7334 24.4399 18.9997 24.4285C21.2803 24.4399 23.3288 22.5589 24.4894 21.7121C29.7448 17.8981 31.3875 16.6732 32.5714 15.7577Z" fill="black"/>
</g>
<defs>
<clipPath id="clip0_83_211">
<rect width="38" height="38" rx="7" fill="white"/>
</clipPath>
</defs>
</svg>

<svg xmlns="http://www.w3.org/2000/svg" width="38" height="38" fill="none"><g clip-path="url(#a)"><path fill="#000" d="M33.93 0H4.07A4.07 4.07 0 0 0 0 4.07v29.86A4.07 4.07 0 0 0 4.07 38h29.86A4.07 4.07 0 0 0 38 33.93V4.07A4.07 4.07 0 0 0 33.93 0ZM15.1 19.52c-7.7-5.58-7.62-5.6-9.68-7.2v-2.14c0-1.13.91-2.04 2.03-2.04h23.08c1.12 0 2.03.91 2.03 2.04v2.13c-2.07 1.61-1.99 1.63-9.68 7.2-.89.66-2.66 2.22-3.89 2.2-1.23.02-3-1.54-3.9-2.2Zm17.46-3.76v12.06c0 1.13-.91 2.04-2.03 2.04H7.46a2.04 2.04 0 0 1-2.03-2.04V15.76c1.18.91 2.83 2.14 8.08 5.95 1.2.88 3.22 2.73 5.49 2.72 2.28.01 4.33-1.87 5.49-2.72 5.25-3.81 6.9-5.04 8.08-5.95Z"/></g><defs><clipPath id="a"><rect width="38" height="38" fill="#fff" rx="7"/></clipPath></defs></svg>
